!!!!SEGMENT: pl-kk--kk-i-2--007-002_anonim--missa-regina-caeli-gloria.krn
!!!cenid: 16xx:1609
!!!COM: Anonim
!!!COM-rismID: pe30004985
!!!CDT:
!!!CNT:
!!!OPR: Missa Regina caeli
!!!OTL: Gloria
!!!OMV: 002
!!!PDT:
!!!AGN: Sacred; Mass
!!!SMS-siglum: PL-Kk
!!!SMS-shelfmark: Kk.I.2
!!!SMS-shelfwork: 007-002 M
!!!NIFC-rismSourceID: 300258023
!!!NIFC-islandoraID: pl-kk:750
!!!URL-pdf-islandora: https://repozytorium.nifc.pl/islandora/object/pl-kk%3A750/datastream/PDF/view
!!!URL-scan: https://polish.musicsources.pl/pl/lokalizacje/galeria/rekopisy/5828 @EN{Scan on Polish Music Sources Website} @PL{Skany w portalu Dziedzictwo Muzyki Polskiej w otwartym dostępie}
!!!ONB-nifc: Części mszy: Kyrie, Gloria, Credo, Sanctus, Agnus Dei; skany: C: 0020-0021; A: 0120-0121; T: 0225-0226; B: 0322-0323;
!!!AIN: 1 alto 1 bass 1 soprn 1 tenor
!!!key:
**kern	**text	**kern	**text	**kern	**text	**kern	**text
*part4	*part4	*part3	*part3	*part2	*part2	*part1	*part1
*staff4	*staff4	*staff3	*staff3	*staff2	*staff2	*staff1	*staff1
*I"BASVS	*	*I"TENOR	*	*I"ALTVS	*	*I"DISCANTVS	*
*I'B	*	*I'T	*	*I'A	*	*I'S	*
*Ibass	*	*Itenor	*	*Ialto	*	*Isoprn	*
*ICvox	*	*ICvox	*	*ICvox	*	*ICvox	*
*clefF4	*	*clefC4	*	*clefC4	*	*clefC3	*
*k[b-]	*	*k[b-]	*	*k[b-]	*	*k[b-]	*
*F:	*	*F:	*	*F:	*	*F:	*
*M2/1	*	*M2/1	*	*M2/1	*	*M2/1	*
*met(C|)	*	*met(C|)	*	*met(C|)	*	*met(C|)	*
=1-	=1-	=1-	=1-	=1-	=1-	=1-	=1-
1.F	ET	1.c	ET	1.A	Et	1.f	Et
!	!	!LO:TX:t=P:problem=kreska pseudotaktowa	!	!LO:TX:t=P:problem=kreska pseudotaktowa	!	!LO:TX:t=P:problem=kreska pseudotaktowa	!
2F\	in	2c\	in	2A/	in	2f\	in
=2-	=2-	=2-	=2-	=2-	=2-	=2-	=2-
2.C/	ter-	1.c	ter-	2.G/	ter-	2.e\	ter-
!LO:TX:t=P:problem=kreska pseudotaktowa	!	!	!	!	!	!	!
4D/	.	.	.	4F/	.	4f\	.
2E\	.	.	.	2E/	.	2g\	.
!	!	!LO:TX:t=P:problem=kreska pseudotaktowa	!	!LO:TX:t=P:problem=kreska pseudotaktowa	!	!LO:TX:t=P:problem=kreska pseudotaktowa	!
2F\	-ra	2c\	-ra	2A/	-ra	2f\	-ra
=3-	=3-	=3-	=3-	=3-	=3-	=3-	=3-
2C/	pax	2.c\	pax	2G/	pax	4e\	pax
.	.	.	.	.	.	4d\	.
2AA/	ho-	.	.	2F/	ho-	1c	.
.	.	4A\	ho-	.	.	.	.
2.C/	-mi-	2.G/	-mi-	2F/	-mi-	.	.
!	!	!	!	!	!	!LO:TX:t=P:problem=kreska pseudotaktowa	!
.	.	.	.	2E/	-ni-	2c/	ho-
!LO:TX:t=P:problem=kreska pseudotaktowa	!	!LO:TX:t=P:problem=kreska pseudotaktowa	!	!	!	!	!
4C/	-ni-	4G/	-ni-	.	.	.	.
=4-	=4-	=4-	=4-	=4-	=4-	=4-	=4-
!	!	!	!	!LO:TX:t=P:problem=kreska pseudotaktowa	!	!	!
2FF/	-bus	2.A\	-bus	1F	-bus	2.c/	-mi-
1F	bo-	.	.	.	.	.	.
.	.	4B-\	.	.	.	4c/	-ni-
!	!	!LO:TX:t=P:problem=kreska pseudotaktowa	!	!	!	!LO:TX:t=P:problem=kreska pseudotaktowa	!
.	.	1c	.	2r	.	1c	-bus
2E\	-nae	.	.	1c\	bo-	.	.
=5-	=5-	=5-	=5-	=5-	=5-	=5-	=5-
2D/	vo-	1F	bo-	.	.	2r	.
!	!	!	!	!LO:TX:t=P:problem=kreska pseudotaktowa	!	!	!
!	!	!	!	!LO:N:acc=#	!	!	!
!LO:TX:t=P:problem=kreska pseudotaktowa	!	!	!	!LO:TX:a:t=P:problem=# below	!	!	!
2D/	-lun-	.	.	2Bn/	-ne	1f	bo-
2.C/	-ta-	2G/	-nae	4c\	vo-	.	.
.	.	.	.	4B-y\	.	.	.
!	!	!	!	!	!	!LO:TX:t=P:problem=kreska pseudotaktowa	!
.	.	1c\	vo-	4A\	.	2e\	-nae
4BB-/	.	.	.	4G\	.	.	.
=6-	=6-	=6-	=6-	=6-	=6-	=6-	=6-
4AA/	.	.	.	2A/	.	4f\	vo-
4GG/	.	.	.	.	.	4c/	-lun-
!LO:TX:t=P:problem=kreska pseudotaktowa	!	!LO:TX:t=P:problem=kreska pseudotaktowa	!	!LO:TX:t=P:problem=kreska pseudotaktowa	!	!	!
2FF/	.	2c\	-lun-	2A/	-lun-	1f	-ta-
1C	.	1c	-ta-	1G	-ta-	.	.
!	!	!	!	!	!	!LO:TX:t=P:problem=kreska pseudotaktowa	!
.	.	.	.	.	.	2e\	.
=7-	=7-	=7-	=7-	=7-	=7-	=7-	=7-
!LO:TX:t=P:problem=kreska pseudotaktowa	!	!LO:TX:t=P:problem=kreska pseudotaktowa	!	!	!	!	!
1FF	-tis	1c	-tis	2A,<\	-tis	2f\	-tis
!	!	!	!	!LO:TX:t=P:problem=przekreślona synkopowana wartość	!	!	!
.	.	.	.	1c	lau-	2c/	lau-
!LO:TX:t=P:problem=kreska pseudotaktowa	!	!LO:TX:t=P:problem=kreska pseudotaktowa	!	!	!	!	!
0r	.	0r	.	.	.	2.d\	-da-
!	!	!	!	!LO:TX:t=P:problem=przekreślona synkopowana wartość	!	!	!
.	.	.	.	1B-\	-da-	.	.
!	!	!	!	!	!	!LO:TX:t=P:problem=kreska pseudotaktowa	!
.	.	.	.	.	.	4c/	.
=8-	=8-	=8-	=8-	=8-	=8-	=8-	=8-
.	.	.	.	.	.	4d\	.
.	.	.	.	.	.	4e\	.
!	!	!	!	!LO:TX:t=P:problem=kreska pseudotaktowa	!	!	!
.	.	.	.	2A/	.	1f	.
*custos:D	*	*	*	*	*	*	*
!LO:TX:t=P:problem=kreska pseudotaktowa	!	!	!	!	!	!	!
1C	Lau-	1.c	Lau-	2.G/	.	.	.
*	*	*	*	*	*	*custos:f	*
!	!	!	!	!	!	!LO:TX:t=P:problem=kreska pseudotaktowa	!
.	.	.	.	.	.	2e\	-mus
.	.	.	.	4G/	-mus	.	.
!LO:LB:g=original	!	!	!	!	!	!LO:LB:g=original	!
=9-	=9-	=9-	=9-	=9-	=9-	=9-	=9-
*	*	*	*	*custos:F	*	*	*
!	!	!	!	!LO:TX:t=P:problem=kreska pseudotaktowa	!	!	!
!	!	!	!	!	!	!LO:TX:t=P:problem=kreska pseudotaktowa	!
2.D/	-da-	.	.	1F	te	1f	te
.	.	1B-	-da-	.	.	.	.
!LO:TX:t=P:problem=kreska pseudotaktowa	!	!	!	!	!	!	!
4C/	.	.	.	.	.	.	.
!	!	!	!	!LO:LB:g=original	!	!	!
4D/	.	.	.	0r	.	0r	.
4E\	.	.	.	.	.	.	.
!	!	!LO:TX:t=P:problem=kreska pseudotaktowa	!	!	!	!	!
1F\	.	2A/	.	.	.	.	.
=10-	=10-	=10-	=10-	=10-	=10-	=10-	=10-
.	.	2.G/	.	.	.	.	.
!LO:TX:t=P:problem=kreska pseudotaktowa	!	!	!	!	!	!	!
2E\	-mus	.	.	.	.	.	.
.	.	4G/	-mus	.	.	.	.
!	!	!	!	!LO:TX:t=P:problem=kreska pseudotaktowa	!	!LO:TX:t=P:problem=kreska pseudotaktowa	!
1F,<	te	1A	te	1r	.	1r	.
=11-	=11-	=11-	=11-	=11-	=11-	=11-	=11-
1.BB-	be-	2.B-\	be-	1F	Be-	2.d\	be-
!	!	!LO:TX:t=P:problem=kreska pseudotaktowa	!	!	!	!	!
.	.	4c\	.	.	.	4e\	.
*	*	*custos:B	*	*	*	*	*
.	.	2d\	.	1B-	-ne-	2f\	.
!	!	!LO:LB:g=original	!	!	!	!	!
!LO:TX:t=P:problem=kreska pseudotaktowa	!	!LO:TX:t=P:problem=kreska pseudotaktowa	!	!	!	!LO:TX:t=P:problem=kreska pseudotaktowa	!
2BB-/	-ne-	2B-\	-ne-	.	.	2f\	-ne-
=12-	=12-	=12-	=12-	=12-	=12-	=12-	=12-
2.F\	-di-	1A	-di-	4c\	-di-	2.f\	-di-
.	.	.	.	4B-\	.	.	.
!	!	!	!	!LO:TX:t=P:problem=kreska pseudotaktowa	!	!	!
.	.	.	.	2A/	.	.	.
4F\	-ci-	.	.	.	.	4f\	-ci-
!	!	!	!	!	!	!LO:TX:t=P:problem=kreska pseudotaktowa	!
1C	-mus	2c\	-ci-	2G/	.	1e	-mus
!	!	!LO:TX:t=P:problem=kreska pseudotaktowa	!	!	!	!	!
.	.	2c\	-mus	4G/	-ci-	.	.
.	.	.	.	4G/	-mus	.	.
=13-	=13-	=13-	=13-	=13-	=13-	=13-	=13-
2G\	te	2B-\	te	2G,</	te	1d	te
!	!	!	!	!LO:TX:t=P:problem=kreska pseudotaktowa	!	!	!
1G	a-	2B-\	a-	2G/	a-	.	.
.	.	1A	-do-	1A	-do-	1.d	A-
!LO:TX:t=P:problem=kreska pseudotaktowa	!	!	!	!	!	!	!
2F#X\	-do-	.	.	.	.	.	.
=14-	=14-	=14-	=14-	=14-	=14-	=14-	=14-
2.G\	-ra-	4B-\	-ra-	4G/	-ra-	.	.
.	.	4c\	.	4A/	.	.	.
!	!	!	!	!	!	!LO:TX:t=P:problem=kreska pseudotaktowa	!
.	.	1d	.	4B-/	.	2d\	-do-
!	!	!	!	!LO:TX:t=P:problem=kreska pseudotaktowa	!	!	!
4Fny\	.	.	.	4A/	.	.	.
2E-X\	.	.	.	2G/	.	2g\	-ra-
!	!	!LO:TX:t=P:problem=kreska pseudotaktowa	!	!	!	!	!
2E-\	-mus	2c\	-mus	2G/	-mus	2g\	-mus
=15-	=15-	=15-	=15-	=15-	=15-	=15-	=15-
2D,</	te	2d\	te	2A/	te	2f#X\	te
!LO:TX:t=P:problem=kreska pseudotaktowa	!	!	!	!LO:TX:t=P:problem=kreska pseudotaktowa	!	!LO:TX:t=P:problem=kreska pseudotaktowa	!
2G\	Glo-	2d\	Glo-	2B-\	glo-	2g\	glo-
2.A\	-ri-	2.c\	-ri-	2.A\	-ri-	2.e\	-ri-
4Eny\	-fi-	4c\	-fi-	4B-\	-fi-	4g\	-fi-
=16-	=16-	=16-	=16-	=16-	=16-	=16-	=16-
2F\	-ca-	2A\	-ca-	2c\	-ca-	2fny\	-ca-
2A\	-mus	2c\	-mus	2A/	-mus	2e\	-mus
!	!	!	!	!LO:TX:t=P:problem=kreska pseudotaktowa	!	!	!
!LO:TX:t=P:problem=kreska pseudotaktowa	!	!LO:TX:t=P:problem=kreska pseudotaktowa	!	!LO:N:acc=#	!	!LO:TX:t=P:problem=kreska pseudotaktowa	!
1G	te	1d	te	1Bn	te	1g	te
=17-	=17-	=17-	=17-	=17-	=17-	=17-	=17-
2r	.	2r	.	2r	.	2r	.
!	!	!LO:N:acc=#	!	!	!	!	!
2.G\	Gra-	2.Bn\	Gra-	2.d\	gra-	2.g\	Gra-
4G\	-ti-	4B\	-ti-	4d\	-ti-	4g\	-ti-
*custos:C	*	*	*	*custos:c	*	*	*
!LO:TX:t=P:problem=kreska pseudotaktowa	!	!	!	!LO:TX:t=P:problem=kreska pseudotaktowa	!	!	!
!	!	!	!	!	!	!LO:TX:t=P:problem=kreska pseudotaktowa	!
2G\	-as	2B\	-as	2d\	-aſ	2g\	-as
!LO:LB:g=original	!	!	!	!LO:LB:g=original	!	!	!
=18-	=18-	=18-	=18-	=18-	=18-	=18-	=18-
2.C/	a-	2c\	a-	2.c\	a-	2.e\	a-
.	.	2G/	-gi-	.	.	.	.
4C/	-gi-	.	.	4c\	-gi-	4e\	-gi-
2F\	-mus	2A/	-mus	2c\	-mus	2f\	-mus
!LO:TX:t=P::problem=kreska pseudotaktowa&colon;między nutą a kropką	!	!	!	!LO:TX:t=P::problem=kreska pseudotaktowa&colon;między nutą a kropką	!	!LO:TX:t=P:problem=kreska pseudotaktowa	!
2.F\	a-	2.A\	a-	2.c\	a-	2.f\	a-
=19-	=19-	=19-	=19-	=19-	=19-	=19-	=19-
.	.	.	.	.	.	.	.
*	*	*	*	*	*	*custos:f	*
4F\	-gi-	4A\	-gi-	4c\	-gi-	4f\	-gi-
!	!	!	!	!	!	!LO:LB:g=original	!
!	!	!	!	!	!	!LO:TX:t=P:problem=kreska pseudotaktowa	!
2BB-/	-mus	1B-y	-mus	2d\	-mus	2f\	-mus
1F	ti-	.	.	1c	ti-	1f	ti-
*	*	*custos:B	*	*	*	*	*
!	!	!LO:TX:t=P:problem=kreska pseudotaktowa	!	!	!	!	!
.	.	2A\	ti-	.	.	.	.
!	!	!LO:LB:g=original	!	!	!	!	!
=20-	=20-	=20-	=20-	=20-	=20-	=20-	=20-
2BB-/	-bi	2B-\	-bi	2d\	-bi	2f\	-bi
1BB-	pro-	1B-	pro-	1d	pro-	1f	pro-
!LO:TX:t=P:problem=kreska pseudotaktowa	!	!LO:TX:t=P:problem=kreska pseudotaktowa	!	!LO:TX:t=P:problem=kreska pseudotaktowa	!	!LO:TX:t=P:problem=kreska pseudotaktowa	!
2D/	-pter	2B-\	-pter	2d\	-pter	2f\	-pter
=21-	=21-	=21-	=21-	=21-	=21-	=21-	=21-
1F	mag-	1A	mag-	4c\	ma-	1f	mag-
.	.	.	.	4B-y\	.	.	.
.	.	.	.	2A/	.	.	.
2C,</	-na(m)	2c\	-na(m)	2G/	-gna(m)	2e\	-na(m)
!	!	!	!	!LO:TX:t=P::problem=kreska pseudotaktowa&colon;między nutą a kropką	!	!LO:TX:t=P::problem=kreska pseudotaktowa&colon;między nutą a kropką	!
2.C/	glo-	2.c\	glo-	2.G/	glo-	2.e\	glo-
=22-	=22-	=22-	=22-	=22-	=22-	=22-	=22-
.	.	.	.	.	.	.	.
4C/	-ri-	4c\	-ri-	4G/	-ri-	4e\	-ri-
!LO:TX:t=P:problem=kreska pseudotaktowa	!	!	!	!LO:TX:t=P:problem=kreska pseudotaktowa	!	!	!
2E\	-am	1c	-am	2G/	-a(m)	2e\	-am
1G	tu-	.	.	1G	tu-	1d	tu-
!	!	!LO:TX:t=P:problem=kreska pseudotaktowa	!	!	!	!	!
!	!	!LO:N:acc=#	!	!	!	!	!
.	.	2Bn\	tu-	.	.	.	.
=23-	=23-	=23-	=23-	=23-	=23-	=23-	=23-
!	!	!	!	!	!	!LO:TX:t=P:problem=kreska pseudotaktowa	!
2C/	-am	2.c\	-am	2G/	-a(m)	1e	-am
2.C/	Do-	.	.	2.E/	Do-	.	.
.	.	8B-y\L	.	.	.	.	.
.	.	8A\J	.	.	.	.	.
!	!	!LO:TX:t=P:problem=kreska pseudotaktowa	!	!	!	!	!
.	.	1G	.	.	.	1r	.
4D/	-mi-	.	.	4F/	-mi-	.	.
!LO:TX:t=P:problem=kreska pseudotaktowa	!	!	!	!LO:TX:t=P:problem=kreska pseudotaktowa	!	!	!
2E\	-ne	.	.	2G/	-ne	.	.
=24-	=24-	=24-	=24-	=24-	=24-	=24-	=24-
1F	De-	2r	.	1A	de-	2r	.
.	.	2.A\	Do-	.	.	2.c/	Do-
*	*	*	*	*custos:B	*	*	*
!	!	!	!	!LO:TX:t=P:problem=kreska pseudotaktowa	!	!	!
!LO:TX:t=P:problem=kreska pseudotaktowa	!	!	!	!	!	!	!
1C	-us	.	.	1G	-uſ	.	.
.	.	4B-\	-mi-	.	.	4d\	-mi-
!	!	!LO:TX:t=P:problem=kreska pseudotaktowa	!	!	!	!LO:TX:t=P:problem=kreska pseudotaktowa	!
.	.	2c\	-ne	.	.	2e\	-ne
!	!	!	!	!LO:PB:g=original	!	!	!
=25-	=25-	=25-	=25-	=25-	=25-	=25-	=25-
2.BB-/	Rex	1d	De-	2B-\	Rex	1f	De-
.	.	.	.	4A/	.	.	.
!LO:TX:t=P:problem=kreska pseudotaktowa	!	!	!	!LO:TX:t=P:problem=kreska pseudotaktowa	!	!	!
4C/	.	.	.	4G,</	.	.	.
4D/	.	2A\	-us	4F/	.	2d\	-us
4E\	.	.	.	4G/	.	.	.
1F\	.	1A\	rex	4A\	.	2c/	rex
!	!	!	!	!LO:TX:t=P:problem=kreska pseudotaktowa	!	!	!
.	.	.	.	4B-\	.	.	.
=26-	=26-	=26-	=26-	=26-	=26-	=26-	=26-
.	.	.	.	2c\	.	2A/	cae-
*custos:D	*	*	*	*	*	*	*
!LO:TX:t=P:problem=kreska pseudotaktowa	!	!	!	!	!	!	!
!	!	!LO:TX:t=P:problem=kreska pseudotaktowa	!	!	!	!	!
2E\	cae-	2G\	cae-	2G/	ce-	1c	-le-
!LO:LB:g=original	!	!	!	!LO:TX:t=P:problem=kreska pseudotaktowa	!	!	!
1D	le-	2A\	le-	1F,<	-les-	.	.
!	!	!	!	!	!	!LO:TX:t=P:problem=kreska pseudotaktowa	!
!	!	!	!	!	!	!LO:N:acc=#	!
.	.	4G/	.	.	.	2Bn/	.
.	.	4F/	.	.	.	.	.
=27-	=27-	=27-	=27-	=27-	=27-	=27-	=27-
2C,</	-ſtis	1G	-ſtis	2E/	-tis	2c/	-ſtis
!	!	!	!	!LO:TX:t=P:problem=kreska pseudotaktowa	!	!	!
1C	De-	.	.	2G/	De-	1e	De-
.	.	1c	De-	2E/	-us	.	.
!LO:TX:t=P:problem=kreska pseudotaktowa	!	!	!	!LO:TX:t=P::problem=kreska pseudotaktowa&colon;między nutą a kropką	!	!LO:TX:t=P:problem=kreska pseudotaktowa	!
2AA/	-us	.	.	2.A,<\	pa-	2c/	-us
=28-	=28-	=28-	=28-	=28-	=28-	=28-	=28-
1D	Pa-	2A\	-us	.	.	1f	Pa-
.	.	.	.	4G\	.	.	.
!	!	!LO:N:acc=#	!	!	!	!	!
.	.	2Bn\	Pa-	2F,</	.	.	.
2C/	-ter	2.c\	-ter	2G/	-ter	2e\	-ter
!LO:TX:t=P:problem=kreska pseudotaktowa	!	!	!	!LO:TX:t=P:problem=kreska pseudotaktowa	!	!	!
2E\	om-	.	.	2c,<\	om-	2g\	om-
*	*	*custos:A	*	*	*	*	*
!	!	!LO:TX:t=P:problem=kreska pseudotaktowa	!	!	!	!	!
.	.	4G/	o-	.	.	.	.
!	!	!LO:PB:g=original	!	!	!	!	!
=29-	=29-	=29-	=29-	=29-	=29-	=29-	=29-
2F\	-ni-	2A\	-mni-	2c\	-ni-	2f\	-ni-
*	*	*	*	*	*	*custos:d	*
!	!	!	!	!	!	!LO:TX:t=P:problem=kreska pseudotaktowa	!
2G\	-po-	2G/	-po-	2B-,<\	-po-	2d\	-po-
!	!	!	!	!	!	!LO:LB:g=original	!
2D/	-te(n)s	2F#X/	-te(n)s	2A\	-tens	2d\	-tens
!LO:TX:t=P::problem=kreska pseudotaktowa&colon;między nutą a kropką	!	!	!	!	!	!	!
2.D/	Do-	2.F#/	Do-	2.A,</	do-	2.d\	Do-
=30-	=30-	=30-	=30-	=30-	=30-	=30-	=30-
.	.	.	.	.	.	.	.
4D/	-mi-	4F#/	-mi-	4A/	-mi-	4d\	-mi-
!	!	!	!	!LO:TX:t=P:problem=kreska pseudotaktowa	!	!LO:TX:t=P:problem=kreska pseudotaktowa	!
2GG/	-ne	1G	-ne	2B-,<\	-ne	2d\	-ne
1D	fi-	.	.	1A	fi-	1d	fi-
!	!	!LO:TX:t=P:problem=kreska pseudotaktowa	!	!	!	!	!
!	!	!LO:TX:b:t=P:problem=# below	!	!	!	!	!
.	.	2F#X/	fi-	.	.	.	.
=31-	=31-	=31-	=31-	=31-	=31-	=31-	=31-
*	*	*	*	*custos:d	*	*	*
!	!	!	!	!LO:TX:t=P:problem=kreska pseudotaktowa	!	!	!
2GG,</	-li	2G/	-li	1B-	-li	2c/	-li
1G	v-	1B-y	v-	.	.	4B-y/	u-
!	!	!	!	!	!	!LO:TX:t=P:problem=kreska pseudotaktowa	!
.	.	.	.	.	.	4c/	.
!	!	!	!	!LO:LB:g=original	!	!	!
.	.	.	.	1.d	u-	4d\	.
.	.	.	.	.	.	4e\	.
!LO:TX:t=P:problem=kreska pseudotaktowa	!	!LO:TX:t=P:problem=kreska pseudotaktowa	!	!	!	!	!
2F\	-ni-	2A\	-ni-	.	.	1f\	.
=32-	=32-	=32-	=32-	=32-	=32-	=32-	=32-
2.B-\	-ge-	2.d\	-ge-	.	.	.	.
!	!	!	!	!LO:TX:t=P:problem=kreska pseudotaktowa	!	!LO:TX:t=P:problem=kreska pseudotaktowa	!
.	.	.	.	2d\	-ni-	2f\	-ni-
4A\	.	4c\	.	.	.	.	.
1.G	.	4B-\	.	4d\	-ge-	2g\	-ge-
.	.	4A\	.	4c\	.	.	.
.	.	4G/	.	4B-\	.	1f\	.
!	!	!LO:TX:t=P:problem=kreska pseudotaktowa	!	!	!	!	!
.	.	4A/	.	4A\	.	.	.
=33-	=33-	=33-	=33-	=33-	=33-	=33-	=33-
.	.	2B-\	.	2G/	.	.	.
!	!	!	!	!LO:TX:t=P:problem=kreska pseudotaktowa	!	!	!
2G\	-ni-	2B-\	-ni-	2G/	-ni-	2e\	-ni-
!LO:TX:t=P:problem=kreska pseudotaktowa	!	!	!	!	!	!LO:TX:t=P:problem=kreska pseudotaktowa	!
1F	-te	1c	-te	2A,</	-te	0f	-te
.	.	.	.	2.F/	Je-	.	.
=34-	=34-	=34-	=34-	=34-	=34-	=34-	=34-
0FF	Je-	2.c\	Je-	.	.	.	.
.	.	.	.	4G/	.	.	.
.	.	.	.	4A\	.	.	.
!	!	!	!	!LO:TX:t=P:problem=kreska pseudotaktowa	!	!	!
.	.	4B-\	.	4B-\	.	.	.
.	.	4A\	.	2c\	.	2r	.
.	.	4G/	.	.	.	.	.
!	!	!LO:TX:t=P:problem=kreska pseudotaktowa	!	!	!	!	!
.	.	2Fny/	.	2A\	-ſu	2.c/	Je-
=35-	=35-	=35-	=35-	=35-	=35-	=35-	=35-
!LO:TX:t=P:problem=kreska pseudotaktowa	!	!	!	!	!	!	!
0C	-ſu	2.E/	.	2.G/	Je-	.	.
.	.	.	.	.	.	4d\	.
.	.	.	.	.	.	4e\	.
!	!	!	!	!LO:TX:t=P:problem=kreska pseudotaktowa	!	!LO:TX:t=P:problem=kreska pseudotaktowa	!
.	.	4D/	.	4F,</	.	4f\	.
.	.	2C/	.	4E/	.	2g\	.
.	.	.	.	4D/	.	.	.
.	.	1G/	-ſu	2C,</	.	2.G/	-ſu
=36-	=36-	=36-	=36-	=36-	=36-	=36-	=36-
*	*	*	*	*lig	*	*	*
0GG	chri-	.	.	1D	-ſu	.	.
.	.	.	.	.	.	4A/	.
!	!	!	!	!	!	!LO:N:acc=#	!
.	.	1D	Chri-	.	.	4Bn/	.
!	!	!	!	!	!	!LO:TX:t=P:problem=kreska pseudotaktowa	!
.	.	.	.	.	.	4c/	.
*	*	*	*	*	*	*lig	*
.	.	.	.	1G	.	1d	Chri-
!	!	!LO:TX:t=P:problem=kreska pseudotaktowa	!	!	!	!	!
.	.	2G/	-ſte	.	.	.	.
*	*	*	*	*Xlig	*	*	*
=37-	=37-	=37-	=37-	=37-	=37-	=37-	=37-
*	*	*	*	*	*	*col	*
1.C	-ſte	2G,</	.	4E/	Chris-	2.c\	.
.	.	.	.	4F/	.	.	.
*	*	*	*	*lig	*	*	*
.	.	2.c\	Do-	1G	.	.	.
*	*	*	*	*	*	*Xlig	*
!	!	!	!	!	!	!LO:TX:t=P:problem=kreska pseudotaktowa	!
.	.	.	.	.	.	4d\	.
*	*	*	*	*	*	*Xcol	*
.	.	.	.	.	.	2e\	.
*	*	*custos:c	*	*	*	*	*
.	.	4c\	-mi-	.	.	.	.
!	!	!LO:LB:g=original	!	!	!	!	!
!LO:TX:t=P::problem=kreska pseudotaktowa&colon;między nutą a kropką	!	!LO:TX:t=P:problem=kreska pseudotaktowa	!	!	!	!LO:TX:t=P:problem=kreska pseudotaktowa	!
2.F\	Do-	2c\	-ne	1A\	.	2f\	.
*	*	*	*	*Xlig	*	*	*
=38-	=38-	=38-	=38-	=38-	=38-	=38-	=38-
*	*	*	*	*	*	*custos:d	*
.	.	2.d\	De-	.	.	2f\	-ſte
4F\	-mi-	.	.	.	.	.	.
*custos:G	*	*	*	*	*	*	*
!LO:TX:t=P:problem=kreska pseudotaktowa	!	!	!	!	!	!LO:PB:g=original	!
!	!	!	!	!LO:TX:t=P:problem=kreska pseudotaktowa	!	!LO:TX:t=P::problem=kreska pseudotaktowa&colon;między nutą a kropką	!
2F\	-ne	.	.	2A,</	-te	2.d\	Do-
!	!	!LO:TX:t=P:problem=kreska pseudotaktowa	!	!	!	!	!
.	.	4c\	.	.	.	.	.
!LO:PB:g=original	!	!	!	!	!	!	!
2.G\	De-	4.B-\	.	2r	.	.	.
.	.	.	.	.	.	4d\	-mi-
.	.	8A\	.	.	.	.	.
!	!	!LO:TX:t=P:problem=kreska pseudotaktowa	!	!	!	!	!
.	.	2B-\	.	2.G,</	do-	2d\	-ne
4F\	.	.	.	.	.	.	.
=39-	=39-	=39-	=39-	=39-	=39-	=39-	=39-
4E\	.	2c\	-us	.	.	2.e\	De-
4D/	.	.	.	4G,</	-mi-	.	.
*	*	*	*	*custos:A	*	*	*
!	!	!	!	!LO:TX:t=P:problem=kreska pseudotaktowa	!	!	!
!LO:TX:t=P:problem=kreska pseudotaktowa	!	!	!	!	!	!	!
2E\	.	1c	a-	2G/	-ne	.	.
!	!	!	!	!	!	!LO:TX:t=P:problem=kreska pseudotaktowa	!
.	.	.	.	.	.	4d\	.
!	!	!	!	!LO:LB:g=original	!	!	!
1F	-us	.	.	2.A/	De-	4c/	.
.	.	.	.	.	.	4B-y/	.
!	!	!	!	!	!	!LO:TX:t=P:problem=kreska pseudotaktowa	!
.	.	2F/	-gnus	.	.	2c/	.
!	!	!	!	!LO:TX:t=P:problem=kreska pseudotaktowa	!	!	!
.	.	.	.	4G,</	.	.	.
=40-	=40-	=40-	=40-	=40-	=40-	=40-	=40-
*	*	*lig	*	*	*	*	*
2.D/	A-	1A	De-	4F/	.	2d\	-us
.	.	.	.	4E/	.	.	.
!	!	!	!	!LO:TX:t=P:problem=kreska pseudotaktowa	!	!	!
.	.	.	.	2F,</	.	1d	Ag-
4C/	.	.	.	.	.	.	.
2BB-/	.	1B-	.	2G/	-us	.	.
!LO:TX:t=P:problem=kreska pseudotaktowa	!	!	!	!	!	!	!
2D/	-gnus	.	.	2.B-\	Ag-	2f\	-nus
*	*	*Xlig	*	*	*	*	*
=41-	=41-	=41-	=41-	=41-	=41-	=41-	=41-
!	!	!LO:TX:t=P:problem=kreska pseudotaktowa	!	!	!	!LO:TX:t=P:problem=kreska pseudotaktowa	!
1F	De-	1c	.	.	.	1f	De-
.	.	.	.	4B-\	-nus	.	.
!	!	!	!	!LO:TX:t=P:problem=kreska pseudotaktowa	!	!	!
.	.	.	.	2A\	de-	.	.
2BB-/	-i	2d\	-i	2B-\	-i	2f\	-i
!	!	!	!	!	!	!LO:TX:t=P::problem=kreska pseudotaktowa&colon;między nutą a kropką	!
2.B-\	fi-	2.d\	fi-	2B-\	fi-	2.f\	fi-
=42-	=42-	=42-	=42-	=42-	=42-	=42-	=42-
.	.	.	.	2c\	-li-	.	.
4B-\	-li-	4d\	-li-	.	.	4f\	-li-
!LO:TX:t=P:problem=kreska pseudotaktowa	!	!LO:TX:t=P:problem=kreska pseudotaktowa	!	!LO:TX:t=P:problem=kreska pseudotaktowa	!	!LO:TX:t=P:problem=kreska pseudotaktowa	!
2A\	-us	2c\	-us	2c\	-us	2f\	-us
2.G\	Pa-	4B-\	pa-	4d\	pa-	1.g	Pa-
.	.	4c\	.	4c\	.	.	.
.	.	2d\	.	1B-\	.	.	.
4F\	.	.	.	.	.	.	.
=43-	=43-	=43-	=43-	=43-	=43-	=43-	=43-
!	!	!LO:TX:t=P:problem=kreska pseudotaktowa	!	!	!	!	!
2E-X\	.	1c	.	.	.	.	.
!LO:TX:t=P:problem=kreska pseudotaktowa	!	!	!	!LO:TX:t=P:problem=kreska pseudotaktowa	!	!LO:TX:t=P:problem=kreska pseudotaktowa	!
2F\	.	.	.	2A/	.	2f\	.
2BB-/	-tris	2d\	-tris	2B-,<\	-tris	2f\	-tris
!	!	!	!	!	!	!LO:TX:t=P::problem=kreska pseudotaktowa&colon;między nutą a kropką	!
2.F\	fi-	2.c\	fi-	2A,</	fi-	2.f\	fi-
=44-	=44-	=44-	=44-	=44-	=44-	=44-	=44-
.	.	.	.	2G/	-li-	.	.
4F\	-li-	4c\	-li-	.	.	4f\	-li-
!LO:TX:t=P:problem=kreska pseudotaktowa	!	!LO:TX:t=P:problem=kreska pseudotaktowa	!	!LO:TX:t=P:problem=kreska pseudotaktowa	!	!	!
2Eny\	-us	2c\	-us	2G/	-us	2g\	-us
2F\	Pa-	4c\	Pa-	4A\	pa-	2.f\	Pa-
.	.	4B-\	.	4G\	.	.	.
2FF/	.	4A\	.	4A\	.	.	.
!	!	!LO:TX:t=P:problem=kreska pseudotaktowa	!	!LO:TX:t=P:problem=kreska pseudotaktowa	!	!	!
.	.	4G\	.	4B-\	.	8e\L	.
.	.	.	.	.	.	8d\J	.
=45-	=45-	=45-	=45-	=45-	=45-	=45-	=45-
!	!	!	!	!	!	!LO:TX:t=P::problem=kreska pseudotaktowa&colon;między nutą a kropką	!
2.AA/	.	2F/	.	4c\	.	1.c	.
.	.	.	.	4B-\	.	.	.
.	.	4E/	.	1A	.	.	.
!	!	!LO:TX:t=P:problem=kreska pseudotaktowa	!	!	!	!	!
4BB-/	.	4D/	.	.	.	.	.
*	*	*custos:F	*	*	*	*	*
0C	.	2E/	.	.	.	.	.
!	!	!LO:LB:g=original	!	!	!	!	!
.	.	1F/	.	4G/	.	1G/	.
.	.	.	.	4F/	.	.	.
=46-	=46-	=46-	=46-	=46-	=46-	=46-	=46-
.	.	.	.	1G	.	.	.
.	.	2E/	.	.	.	2c/	.
1FFl;;	-tris	1Fl;;	-tris	1Al;;	-tris	1cl/;;	-tris
!LO:LB:g=original	!	!	!	!LO:LB:g=original	!	!LO:LB:g=original	!
=47||	=47||	=47||	=47||	=47||	=47||	=47||	=47||
*M2/1	*	*M2/1	*	*M2/1	*	*M2/1	*
*met(C|)	*	*met(C|)	*	*met(C|)	*	*met(C|)	*
!	!	!	!	!LO:TX:t=P:problem=kreska pseudotaktowa	!	!	!
00r	.	1F	Qui	1r	.	00r	.
!	!	!LO:TX:t=P:problem=kreska pseudotaktowa	!	!	!	!	!
.	.	1c	tol-	1C	Qui	.	.
=48-	=48-	=48-	=48-	=48-	=48-	=48-	=48-
.	.	2c\	-lis	1F	tol-	.	.
.	.	2d\	pec-	.	.	.	.
.	.	2c\	-ca-	2F/	-lis	.	.
!	!	!LO:TX:t=P:problem=kreska pseudotaktowa	!	!LO:TX:t=P:problem=kreska pseudotaktowa	!	!	!
.	.	2B-\	-ta	2G/	pec-	.	.
=49-	=49-	=49-	=49-	=49-	=49-	=49-	=49-
!LO:TX:t=P:problem=kreska pseudotaktowa	!	!	!	!	!	!	!
1r	.	2A\	mun-	4F/	-ca-	1F	QVi
.	.	.	.	4E/	-ta	.	.
.	.	4G/	.	1F	mun-	.	.
.	.	4F/	.	.	.	.	.
1C	QVi	1G	.	.	.	1c	tol-
!	!	!	!	!LO:TX:t=P:problem=kreska pseudotaktowa	!	!	!
.	.	.	.	2E/	.	.	.
=50-	=50-	=50-	=50-	=50-	=50-	=50-	=50-
1F	tol-	1.A	-di	2F/	-di	2c/	-lis
!	!	!	!	!	!	!LO:TX:t=P:problem=kreska pseudotaktowa	!
.	.	.	.	2F/	pec-	2d\	pec-
2F,<\	-lis	.	.	2A/	-ca-	2c/	-ca-
!LO:TX:t=P:problem=kreska pseudotaktowa	!	!LO:TX:t=P:problem=kreska pseudotaktowa	!	!	!	!	!
2G\	pec-	2G/	pec-	2B-\	-ta	2B-/	-ta
=51-	=51-	=51-	=51-	=51-	=51-	=51-	=51-
*	*	*	*	*lig	*	*	*
2F\	-ca-	2A/	-ca-	1c	mu(n)-	4A/	mun-
.	.	.	.	.	.	4B-/	.
!	!	!LO:TX:t=P:problem=kreska pseudotaktowa	!	!	!	!	!
2E\	-ta	2G/	-ta	.	.	1c	.
!	!	!	!	!LO:TX:t=P:problem=kreska pseudotaktowa	!	!	!
1D	mun-	2F/	mun-	1d	.	.	.
!	!	!	!	!	!	!LO:N:acc=#	!
.	.	4E/	.	.	.	2Bn/	.
.	.	4D/	.	.	.	.	.
*	*	*	*	*Xlig	*	*	*
=52-	=52-	=52-	=52-	=52-	=52-	=52-	=52-
*	*	*lig	*	*	*	*	*
!LO:TX:t=P:problem=kreska pseudotaktowa	!	!	!	!	!	!LO:TX:t=P:problem=kreska pseudotaktowa	!
1C	-di	1G	.	1G	-di	1c	-di
1r	.	1A	.	1F	mi-	2r	.
.	.	.	.	.	.	1f\	mi-
*	*	*Xlig	*	*	*	*	*
=53-	=53-	=53-	=53-	=53-	=53-	=53-	=53-
1C	mi-	2G/	-di	1G	-ſe-	.	.
!	!	!	!	!	!	!LO:TX:t=P:problem=kreska pseudotaktowa	!
.	.	1c	mi-	.	.	2e\	-ſe-
1D	-ſe-	.	.	1F	-re-	1.f	-re-
!	!	!LO:TX:t=P:problem=kreska pseudotaktowa	!	!	!	!	!
.	.	2B-\	-ſe-	.	.	.	.
=54-	=54-	=54-	=54-	=54-	=54-	=54-	=54-
1C	-re-	1.c	-re-	2G/	-re	.	.
!	!	!	!	!LO:TX:t=P:problem=kreska pseudotaktowa	!	!LO:TX:t=P:problem=kreska pseudotaktowa	!
.	.	.	.	2A/	.	2e\	-re
2D/	-re	.	.	2B-\	no-	1d	no-
!LO:TX:t=P:problem=kreska pseudotaktowa	!	!	!	!	!	!	!
2E\	.	2B-\	-re	4A\	.	.	.
!	!	!	!	!LO:TX:t=P:problem=kreska pseudotaktowa	!	!	!
.	.	.	.	4G\	.	.	.
=55-	=55-	=55-	=55-	=55-	=55-	=55-	=55-
*	*	*custos:G	*	*	*	*	*
!	!	!LO:TX:t=P:problem=kreska pseudotaktowa	!	!	!	!	!
2F\	no-	1A	no-	4A\	.	1c	-bis
.	.	.	.	4B-\	.	.	.
4E\	.	.	.	2.c\	.	.	.
4D\	.	.	.	.	.	.	.
!	!	!LO:LB:g=original	!	!	!	!	!
2E\	.	2G/	.	.	.	2.c/	mi-
.	.	.	.	4B-\	.	.	.
!	!	!	!	!LO:TX:t=P:problem=kreska pseudotaktowa	!	!	!
1F\	.	2F/	.	2A/	.	.	.
!	!	!	!	!	!	!LO:TX:t=P:problem=kreska pseudotaktowa	!
.	.	.	.	.	.	4c/	-ſe-
=56-	=56-	=56-	=56-	=56-	=56-	=56-	=56-
*	*	*	*	*custos:c	*	*	*
.	.	1G	.	2G/	.	2c/	-re-
!LO:TX:t=P:problem=kreska pseudotaktowa	!	!	!	!LO:LB:g=original	!	!	!
2E\	.	.	.	1c	.	2c/	-re
1D	.	2F/	-bis	.	.	1d	no-
!	!	!LO:TX:t=P:problem=kreska pseudotaktowa	!	!LO:TX:t=P:problem=kreska pseudotaktowa	!	!	!
.	.	2F/	qui	2B-\	.	.	.
=57-	=57-	=57-	=57-	=57-	=57-	=57-	=57-
2C,</	-bis	1c	tol-	2c,<\	-bis	2e\	-bis
!	!	!	!	!LO:TX:t=P:problem=kreska pseudotaktowa	!	!LO:TX:t=P:problem=kreska pseudotaktowa	!
2C,</	qui	.	.	2G/	qui	2e\	qui
*	*	*	*	*	*	*custos:f	*
1F	tol-	2c\	-lis	1A	tol-	1f	tol-
.	.	2d\	pec-	.	.	.	.
!	!	!	!	!	!	!LO:LB:g=original	!
=58-	=58-	=58-	=58-	=58-	=58-	=58-	=58-
2F\	-lis	2c\	-ca-	2A/	-lis	2f\	-lis
*custos:F	*	*	*	*	*	*	*
!LO:TX:t=P:problem=kreska pseudotaktowa	!	!	!	!	!	!	!
!	!	!	!	!LO:TX:t=P:problem=kreska pseudotaktowa	!	!LO:TX:t=P:problem=kreska pseudotaktowa	!
2G\	pec-	2B-\	-ta	2B-\	pec-	2d\	pec-
*	*	*lig	*	*	*	*	*
!LO:LB:g=original	!	!	!	!	!	!	!
2F\	-ca-	1c	mun-	4A\	-ca-	2f\	-ca-
.	.	.	.	4B-\	-ta	.	.
2E\	-ta	.	.	1c\	mu(n)-	2g\	-ta
=59-	=59-	=59-	=59-	=59-	=59-	=59-	=59-
!LO:TX:t=P:problem=kreska pseudotaktowa	!	!LO:TX:t=P:problem=kreska pseudotaktowa	!	!	!	!	!
1D	mun-	1d	.	.	.	2f\	mun-
!	!	!	!	!LO:TX:t=P:problem=kreska pseudotaktowa	!	!	!
.	.	.	.	2B-\	.	4e\	.
!	!	!	!	!	!	!LO:TX:t=P:problem=kreska pseudotaktowa	!
.	.	.	.	.	.	4d\	.
*	*	*Xlig	*	*	*	*	*
0C	.	2.G/	.	2c\	.	2e\	.
.	.	.	.	4B-\	.	1f\	.
.	.	8A\L	.	4A\	.	.	.
.	.	8B-\J	.	.	.	.	.
=60-	=60-	=60-	=60-	=60-	=60-	=60-	=60-
.	.	1c	.	4G\	.	.	.
.	.	.	.	4F/	.	.	.
!	!	!	!	!LO:TX:t=P:problem=kreska pseudotaktowa	!	!LO:TX:t=P:problem=kreska pseudotaktowa	!
.	.	.	.	2G/	.	2e\	.
2FF/	-di	2c\	-di	2A/	-di	2f\	-di
2.F\	ſuſ-	2.A\	ſuſ-	2.c\	ſuſ-	2.f\	ſuſ-
=61-	=61-	=61-	=61-	=61-	=61-	=61-	=61-
.	.	.	.	.	.	.	.
4F\	-ci-	4A\	-ci-	4c\	-ci-	4f\	-ci-
!LO:TX:t=P:problem=kreska pseudotaktowa	!	!LO:TX:t=P:problem=kreska pseudotaktowa	!	!LO:TX:t=P:problem=kreska pseudotaktowa	!	!LO:TX:t=P:problem=kreska pseudotaktowa	!
2F\	-pe	2A/	-pe	2c\	-pe	2f\	-pe
2.BB-/	ſuſ-	2.B-\	ſuſ-	2.d\	ſuſ-	2.f\	ſuſ-
!	!	!	!	!LO:TX:t=P:problem=kreska pseudotaktowa	!	!	!
4BB-/	-ci-	4B-\	-ci-	4d\	-ci-	4f\	-ci-
=62-	=62-	=62-	=62-	=62-	=62-	=62-	=62-
2BB-/	-pe	2B-\	-pe	2d\	-pe	2f\	-pe
1F	de-	1A	de-	1c	de-	1f	de-
!LO:TX:t=P:problem=kreska pseudotaktowa	!	!LO:TX:t=P:problem=kreska pseudotaktowa	!	!LO:TX:t=P:problem=kreska pseudotaktowa	!	!LO:TX:t=P:problem=kreska pseudotaktowa	!
2D/	-pre-	2F/	-pre-	2B-\	-pre-	2f\	-pre-
=63-	=63-	=63-	=63-	=63-	=63-	=63-	=63-
2.C/	-ca-	2.G/	-ca-	2.c\	-ca-	2.e\	-ca-
*	*	*	*	*custos:c	*	*	*
!	!	!	!	!LO:TX:t=P:problem=kreska pseudotaktowa	!	!	!
4BB-/	-ti-	4B-\	-ti-	4d\	-ti-	4d\	-ti-
!	!	!	!	!LO:PB:g=original	!	!	!
2F\	-o-	2A\	-o-	2c\	-o-	2c/	-o-
!	!	!	!	!	!	!LO:TX:t=P:problem=kreska pseudotaktowa	!
2D/	-nem	2d\	-nem	1B-\	-nem	2f\	-nem
=64-	=64-	=64-	=64-	=64-	=64-	=64-	=64-
*	*	*lig	*	*	*	*	*
1F	noſ-	1c	no-	.	.	1f	noſ-
!	!	!	!	!LO:TX:t=P:problem=kreska pseudotaktowa	!	!	!
.	.	.	.	2A/	noſ-	.	.
*	*	*custos:A	*	*	*	*	*
!	!	!LO:TX:t=P:problem=kreska pseudotaktowa	!	!	!	!	!
!	!	!	!	!	!	!LO:TX:t=P:problem=kreska pseudotaktowa	!
2BB-/	-tram	1d	.	2B-\	-tra(m)	1f	-tram
!LO:TX:t=P:problem=kreska pseudotaktowa	!	!	!	!	!	!	!
2B-\	qui	.	.	2d\	qui	.	.
*	*	*Xlig	*	*	*	*	*
!	!	!LO:LB:g=original	!	!	!	!	!
=65-	=65-	=65-	=65-	=65-	=65-	=65-	=65-
1A	ſe-	1A	-ſtram	1c	se-	2r	.
.	.	.	.	.	.	2f\	qui
2G\	-des	2r	.	2B-\	-des	1e-X	ſe-
!	!	!LO:TX:t=P:problem=kreska pseudotaktowa	!	!LO:TX:t=P:problem=kreska pseudotaktowa	!	!	!
2A\	ad	2c\	qui	2c\	ad	.	.
=66-	=66-	=66-	=66-	=66-	=66-	=66-	=66-
2B-\	dex-	1B-	ſe-	2d\	dex-	2d\	-des
!	!	!	!	!	!	!LO:TX:t=P:problem=kreska pseudotaktowa	!
4A\	-te-	.	.	4c\	-te-	2eny\	ad
!LO:TX:t=P:problem=kreska pseudotaktowa	!	!	!	!	!	!	!
4G\	-ra(m)	.	.	4B-\	-ra(m)	.	.
2F\	pa-	2A\	-des	1c	pa-	2f\	dex-
2G\	.	2B-\	ad	.	.	4e\	-te-
*	*	*	*	*	*	*custos:d	*
!	!	!	!	!	!	!LO:TX:t=P:problem=kreska pseudotaktowa	!
.	.	.	.	.	.	4d\	-ra(m)
!	!	!	!	!	!	!LO:LB:g=original	!
=67-	=67-	=67-	=67-	=67-	=67-	=67-	=67-
*custos:G	*	*	*	*	*	*	*
!LO:TX:t=P:problem=kreska pseudotaktowa	!	!	!	!	!	!	!
1A	.	2c\	dex-	2F/	.	4c/	Pa-
.	.	.	.	.	.	4d\	.
!	!	!	!	!LO:TX:t=P:problem=kreska pseudotaktowa	!	!	!
.	.	4B-\	-te-	2c\	-tris	4e\	.
!	!	!	!	!	!	!LO:TX:t=P:problem=kreska pseudotaktowa	!
.	.	4A\	-ra(m)	.	.	4f\	.
!LO:LB:g=original	!	!	!	!	!	!	!
1.G	-tris	1B-	Pat-	2.d\	mi-	2g\	.
.	.	.	.	.	.	2.d\	-tris
.	.	.	.	4c\	-ſe-	.	.
=68-	=68-	=68-	=68-	=68-	=68-	=68-	=68-
!	!	!LO:TX:t=P:problem=kreska pseudotaktowa	!	!	!	!	!
.	.	1d	-ris	2B-\	-re-	.	.
.	.	.	.	.	.	4c\	.
!LO:TX:t=P::problem=kreska pseudotaktowa&colon;między nutą a kropką	!	!	!	!LO:TX:t=P:problem=kreska pseudotaktowa	!	!LO:TX:t=P:problem=kreska pseudotaktowa	!
2.D/	mi-	.	.	2F/	-re	2B-y/	.
.	.	2r	.	2.F/	mi-	2A,</	.
4C/	-ſe-	.	.	.	.	.	.
2BB-/	-re-	2.d\	mi-	.	.	2d\	mi-
.	.	.	.	4F/	-ſe-	.	.
=69-	=69-	=69-	=69-	=69-	=69-	=69-	=69-
!	!	!	!	!LO:TX:t=P:problem=kreska pseudotaktowa	!	!	!
2AA/	-re	.	.	1A	-re-	2e\	-ſe-
.	.	4c\	-ſe-	.	.	.	.
!	!	!	!	!	!	!LO:TX:t=P::problem=kreska pseudotaktowa&colon;między nutą a kropką	!
4GG/	.	4B-\	-re-	.	.	2.f\	-re-
!LO:TX:t=P:problem=kreska pseudotaktowa	!	!LO:TX:t=P:problem=kreska pseudotaktowa	!	!	!	!	!
4FF/	.	4A\	-re	.	.	.	.
1GG	no-	1B-	no-	2D/	-re	.	.
.	.	.	.	.	.	4f\	-re
.	.	.	.	2G/	no-	2e\	no-
=70-	=70-	=70-	=70-	=70-	=70-	=70-	=70-
2FF,</	-bis	2A/	-bis	2c\	-bis	2f\	-bis
1F	quo-	1A	quo-	1c	quo-	1f	quo-
*	*	*	*	*custos:c	*	*	*
!	!	!	!	!LO:TX:t=P:problem=kreska pseudotaktowa	!	!	!
!LO:TX:t=P:problem=kreska pseudotaktowa	!	!LO:TX:t=P:problem=kreska pseudotaktowa	!	!	!	!LO:TX:t=P:problem=kreska pseudotaktowa	!
2F\	-ni-	2A/	-ni-	2c\	-ni-	2f\	-ni-
!	!	!	!	!LO:LB:g=original	!	!	!
=71-	=71-	=71-	=71-	=71-	=71-	=71-	=71-
4C,</	-am	4G/	-am	4c\	-a(m)	4e\	-am
4C/	tu	4G/	tu	4c\	tu	4e\	tu
4E\	ſo-	4E/	ſo-	4c\	ſo-	4g\	ſo-
!	!	!	!	!LO:TX:t=P:problem=kreska pseudotaktowa	!	!	!
4C/	-lus	4G/	-lus	4c\	-lus	4e\	-lus
!LO:TX:t=P:problem=kreska pseudotaktowa	!	!LO:TX:t=P:problem=kreska pseudotaktowa	!	!	!	!	!
1G	San-	1G	San-	1B-	Sa(n)-	1d	San-
=72-	=72-	=72-	=72-	=72-	=72-	=72-	=72-
4D/	-ctus	4A\	-ctus	4d\	-ctus	4f,<\	-ctus
4D/	tu	4A\	tu	4d\	tu	4f\	tu
4F\	ſo-	4A\	ſo-	4d\	ſo-	4f\	ſo-
!	!	!	!	!	!	!LO:TX:t=P:problem=kreska pseudotaktowa	!
4D/	-lus	4A\	-lus	4d\	-lus	4f\	-lus
2.AA/	Do-	2.A\	Do-	2.c#X\	D(o-	2.e\	Do-
!LO:TX:t=P:problem=kreska pseudotaktowa	!	!LO:TX:t=P:problem=kreska pseudotaktowa	!	!LO:TX:t=P:problem=kreska pseudotaktowa	!	!	!
4AA/	-mi-	4A\	-mi-	4c#\	-mi)-	4e\	-mi-
=73-	=73-	=73-	=73-	=73-	=73-	=73-	=73-
2D/	-nus	2A\	-nus	2d\	-n(u)s	2f#X\	-nus
*	*	*custos:d	*	*	*	*	*
!	!	!LO:TX:t=P:problem=kreska pseudotaktowa	!	!	!	!	!
!	!	!	!	!	!	!LO:TX:t=P:problem=kreska pseudotaktowa	!
2F#X\	tu	2A\	tu	2d\	tu	2a\	tu
!	!	!LO:PB:g=original	!	!	!	!	!
2G\	ſo-	2d\	ſo-	2B-\	ſo-	2g\	ſo-
4G\	-lus	4d\	-lus	4B-\	-lus	4d\	-lus
!LO:TX:t=P:problem=kreska pseudotaktowa	!	!LO:TX:t=P:problem=kreska pseudotaktowa	!	!LO:TX:t=P:problem=kreska pseudotaktowa	!	!	!
4B-\	al-	4d\	al-	4d\	al-	4d\	al-
=74-	=74-	=74-	=74-	=74-	=74-	=74-	=74-
2.A\	-tiſ-	2.A\	-tiſ-	2d\	-tiſ-	2.e\	-tiſ-
!	!	!	!	!LO:TX:t=P:problem=kreska pseudotaktowa	!	!	!
.	.	.	.	2c#X\	-ſi-	.	.
*	*	*	*	*	*	*custos:d	*
!	!	!	!	!	!	!LO:TX:t=P:problem=kreska pseudotaktowa	!
4A\	-si-	4A\	-ſi-	.	.	4e\	-si-
*custos:G	*	*	*	*	*	*	*
!LO:TX:t=P:problem=kreska pseudotaktowa	!	!	!	!	!	!	!
!	!	!	!	!	!	!LO:LB:g=original	!
1D	-mus	2A\	-mus	2d,<\	-mus	0d	-mus
.	.	4d\	Je-	2.d\	Je-	.	.
!	!	!LO:TX:t=P:problem=kreska pseudotaktowa	!	!	!	!	!
.	.	4c\	.	.	.	.	.
!LO:LB:g=original	!	!	!	!	!	!	!
=75-	=75-	=75-	=75-	=75-	=75-	=75-	=75-
2.G\	Je-	4B-\	.	.	.	.	.
.	.	4A\	.	4cny\	.	.	.
.	.	2G/	.	4B-\	.	.	.
!LO:TX:t=P:problem=kreska pseudotaktowa	!	!	!	!LO:TX:t=P:problem=kreska pseudotaktowa	!	!	!
4Fny\	.	.	.	4A\	.	.	.
4E\	.	2G/	-ſu	1G	.	4c/	Je-
4D/	.	.	.	.	.	4d\	.
1C/	.	2.G/	Chri-	.	.	4e\	.
!	!	!	!	!	!	!LO:TX:t=P:problem=kreska pseudotaktowa	!
.	.	.	.	.	.	4fny\	.
=76-	=76-	=76-	=76-	=76-	=76-	=76-	=76-
.	.	.	.	2C/	.	2g\	.
.	.	4A\	.	.	.	.	.
!LO:TX:t=P:problem=kreska pseudotaktowa	!	!	!	!LO:TX:t=P:problem=kreska pseudotaktowa	!	!	!
2GG/	-ſu	4B-\	.	2D/	-su	2.g\	-ſu
!	!	!LO:TX:t=P:problem=kreska pseudotaktowa	!	!	!	!	!
.	.	4c\	.	.	.	.	.
2GG/	Je-	2d\	.	1.G	Chris-	.	.
.	.	.	.	.	.	4f\	.
!	!	!	!	!	!	!LO:TX:t=P:problem=kreska pseudotaktowa	!
2C/	-ſu	4c\	-ſte	.	.	2e\	.
.	.	2c\	Je-	.	.	.	.
=77-	=77-	=77-	=77-	=77-	=77-	=77-	=77-
!LO:TX:t=P:problem=kreska pseudotaktowa	!	!	!	!	!	!	!
0GG	Chri-	.	.	.	.	2d\	.
.	.	4c\	-ſu	.	.	.	.
!	!	!	!	!LO:TX:t=P:problem=kreska pseudotaktowa	!	!	!
.	.	1c	chri-	2E/	.	4e\	Chri-
.	.	.	.	.	.	4f\	.
*	*	*	*	*custos:G	*	*	*
.	.	.	.	2D/	.	1g	.
!	!	!LO:TX:t=P:problem=kreska pseudotaktowa	!	!	!	!	!
!	!	!LO:N:acc=#	!	!LO:LB:g=original	!	!	!
!	!	!LO:TX:b:t=P:problem=# below	!	!LO:TX:t=P:problem=kreska pseudotaktowa	!	!	!
.	.	2Bn/	.	2G/	.	.	.
=78-	=78-	=78-	=78-	=78-	=78-	=78-	=78-
2C,</	-ſte	2c\	-ſte	2G,</	-te	2e\	-ſte
!	!	!	!	!LO:TX:t=P:problem=kreska pseudotaktowa	!	!LO:TX:t=P:problem=kreska pseudotaktowa	!
2C/	Cum	2c\	cum	2G/	cu(m)	2e\	Cum
2BB-/	San-	2F/	San-	4B-\	Sa(n)-	2d\	Sa(n)-
.	.	.	.	4B-\	-cto	.	.
!	!	!	!	!LO:TX:a:t=P:problem=# below	!	!	!
2AA/	-cto	2.A\	-cto	1c#X\	Spi-	2c/	-cto
=79-	=79-	=79-	=79-	=79-	=79-	=79-	=79-
*lig	*	*	*	*	*	*lig	*
1D	Spi-	.	.	.	.	1f	Spi-
.	.	4G\	.	.	.	.	.
!	!	!LO:TX:t=P:problem=kreska pseudotaktowa	!	!LO:TX:t=P:problem=kreska pseudotaktowa	!	!	!
.	.	2F/	.	2B-\	-ri-	.	.
*col	*	*	*	*	*	*col	*
2.C/	.	2.G/	spi-	1cny	-tu	2.e\	.
*Xlig	*	*	*	*	*	*Xlig	*
!LO:TX:t=P:problem=kreska pseudotaktowa	!	!	!	!	!	!LO:TX:t=P:problem=kreska pseudotaktowa	!
4C/	-ri-	4G/	-ri-	.	.	4e\	-ri-
*Xcol	*	*	*	*	*	*Xcol	*
=80-	=80-	=80-	=80-	=80-	=80-	=80-	=80-
!	!	!LO:TX:t=P:problem=kreska pseudotaktowa	!	!	!	!	!
1F	-tu	0A	-tu	1c	in	2.f\	-tu
.	.	.	.	.	.	8e\L	.
.	.	.	.	.	.	8d\J	.
!	!	!	!	!	!	!LO:TX:t=P:problem=kreska pseudotaktowa	!
1F	in	.	.	2F/	glo-	1c	.
.	.	.	.	4F/	-ri-	.	.
!	!	!	!	!LO:TX:t=P:problem=kreska pseudotaktowa	!	!	!
.	.	.	.	4F/	-a	.	.
=81-	=81-	=81-	=81-	=81-	=81-	=81-	=81-
2C/	glo-	2r	.	2G/	de-	1r	.
*	*	*custos:F	*	*	*	*	*
!	!	!LO:TX:t=P:problem=kreska pseudotaktowa	!	!	!	!	!
4C/	-ri-	2c\	in	2A/	-i	.	.
!LO:TX:t=P:problem=kreska pseudotaktowa	!	!	!	!	!	!	!
4C/	-a	.	.	.	.	.	.
!	!	!LO:LB:g=original	!	!	!	!	!
2D/	De-	2F/	glo-	1.B-	pa-	1f	in
2D/	-i	4F/	-ri-	.	.	.	.
!	!	!LO:TX:t=P:problem=kreska pseudotaktowa	!	!	!	!	!
.	.	4F/	-a	.	.	.	.
=82-	=82-	=82-	=82-	=82-	=82-	=82-	=82-
2E\	Pa-	2G/	De-	.	.	2c/	glo-
!	!	!	!	!LO:TX:t=P:problem=kreska pseudotaktowa	!	!	!
2F\	-tris	2A/	-i	2A/	-tris	4c/	-ri-
!	!	!	!	!	!	!LO:TX:t=P:problem=kreska pseudotaktowa	!
.	.	.	.	.	.	4c/	-a
2.BB-/	A-	1.B-y	Pa-	2G/	a-	2d\	De-
.	.	.	.	2F/	.	2d\	-i
!LO:TX:t=P:problem=kreska pseudotaktowa	!	!	!	!	!	!	!
4AA/	.	.	.	.	.	.	.
=83-	=83-	=83-	=83-	=83-	=83-	=83-	=83-
2GG/	.	.	.	2G/	-me(n)	2e\	Pa-
!	!	!LO:TX:t=P:problem=kreska pseudotaktowa	!	!	!	!	!
2FF/	.	2A/	-tris	2.c\	a-	1f	-tris
*custos:F	*	*	*	*	*	*	*
!LO:TX:t=P:problem=kreska pseudotaktowa	!	!	!	!	!	!	!
1C	.	2G/	A-	.	.	.	.
.	.	.	.	8B-\L	.	.	.
.	.	.	.	8A\J	.	.	.
*	*	*	*	*	*	*custos:f	*
!	!	!	!	!	!	!LO:TX:t=P:problem=kreska pseudotaktowa	!
!	!	!	!	!LO:TX:t=P:problem=kreska pseudotaktowa	!	!	!
.	.	2c\	.	2G/	.	2e\	A-
!LO:PB:g=original	!	!	!	!	!	!LO:PB:g=original	!
=84-	=84-	=84-	=84-	=84-	=84-	=84-	=84-
!LO:TX:t=P:problem=kreska pseudotaktowa	!	!	!	!	!	!	!
1F	-men	2c\	-men	2.A\	.	4f\	.
.	.	.	.	.	.	4c/	.
!	!	!LO:TX:t=P:problem=kreska pseudotaktowa	!	!	!	!	!
.	.	2c\	in	.	.	4f\	.
.	.	.	.	4B-\	.	4g\	.
!	!	!	!	!LO:TX:t=P:problem=kreska pseudotaktowa	!	!	!
1F	in	2F/	glo-	0c	-men	2a\	.
!	!	!	!	!	!	!LO:TX:t=P:problem=kreska pseudotaktowa	!
.	.	4F/	-ri-	.	.	2A/	.
!	!	!LO:TX:t=P:problem=kreska pseudotaktowa	!	!	!	!	!
.	.	4F/	-a	.	.	.	.
=85-	=85-	=85-	=85-	=85-	=85-	=85-	=85-
!	!	!	!	!	!	!LO:TX:t=P:problem=kreska pseudotaktowa	!
2C/	glo-	2G/	De-	.	.	1e	-men
4C/	-ri-	2A\	-i	.	.	.	.
!LO:TX:t=P:problem=kreska pseudotaktowa	!	!	!	!	!	!	!
4C/	-a	.	.	.	.	.	.
4D/	De-	2B-\	Pat-	1r	.	2r	.
4E\	.	.	.	.	.	.	.
!	!	!LO:TX:t=P:problem=kreska pseudotaktowa	!	!	!	!	!
4F\	.	2A\	-ris	.	.	2f\	in
!LO:TX:t=P:problem=kreska pseudotaktowa	!	!	!	!	!	!	!
4D/	.	.	.	.	.	.	.
=86-	=86-	=86-	=86-	=86-	=86-	=86-	=86-
2E\	.	1G	a-	1c	in	2c/	glo-
!LO:TX:t=P:problem=kreska pseudotaktowa	!	!	!	!	!	!	!
2E\	-i	.	.	.	.	4c/	-ri-
!	!	!	!	!	!	!LO:TX:t=P:problem=kreska pseudotaktowa	!
.	.	.	.	.	.	4c/	-a
2F\	Pa-	2A\	-men	2F/	glo-	2.c/	De-
!LO:TX:t=P:problem=kreska pseudotaktowa	!	!LO:TX:t=P::problem=kreska pseudotaktowa&colon;między nutą a kropką	!	!	!	!	!
2FF/	-tris	(<2.c\	A-	4F/	-ri-	.	.
!	!	!	!	!LO:TX:t=P:problem=kreska pseudotaktowa	!	!	!
.	.	.	.	4F/	-a	4d\	-i
=87-	=87-	=87-	=87-	=87-	=87-	=87-	=87-
0C	A-	.	.	2G/	de-	2e\	Pa-
.	.	4B-\)	.	.	.	.	.
!	!	!LO:TX:t=P:problem=kreska pseudotaktowa	!	!	!	!LO:TX:t=P:problem=kreska pseudotaktowa	!
.	.	2A/	.	2A/	-i	2f\	-tris
.	.	4G/	.	4B-\	pa-	2g\	A-
.	.	2F/	.	4G\	tris	.	.
.	.	.	.	2c\	A-	2c/	.
.	.	4E/	.	.	.	.	.
=88-	=88-	=88-	=88-	=88-	=88-	=88-	=88-
0FFl;	-men	0Fl;;	-men	0cl;;	-men	0cl;	-men
==	==	==	==	==	==	==	==
*-	*-	*-	*-	*-	*-	*-	*-
!!!system-decoration: [(*)]
!!!RDF**kern: < = below
!!!RDF**kern: l = terminal long
!!!ENC: Filip Voros
!!!END: 2022-01-05
!!!ENC: Andrzej Kubiczek
!!!END: 2022-01-07
!!!YEC: Copyright 2022 Narodowy Instytut Fryderyka Chopina (https://polishscores.org)
!!!YEM: Licence CC BY 4.0 (https://creativecommons.org/licenses/by/4.0)
